X:448
%%etbk:tnset id:139,pos:1,rep:3x,ant:
%%etbk:pldat 2014-05-07T18:50,2013-05-22T17:38
T: Floor, The
Z: Piano Box Version by Martin Fleischmann
H: Created 2013-02-19 /  Last Modified 2013-02-19
M: 3/4
L: 1/4
R: waltz
K: Dmaj
|: "D"!4!d2!1!A | !1!A>BA | !3!f2f | !3!f<!5!a2f | "A"!2!e>fe | "D"!1!d2e | !3!f>e!1!d | "G"!2!B>{d}B !1!A/!2!G/ |
"D"!1!A>BA | !1!A2!3!f/g/ | !5!a>gf | "A"!2!e>{g}e d/e/ | "bm"!3!f>e!1!d | "G"!2!B>!4!dB | "D"!1!A3 | A3 :|
!2!B |: "D"!3!d>!5!fd  | !2!B<!4!dB | !1!A>!2!B!1!d | !3!f<!5!af | "A"!2!e>fe | "D"!3!f>e!1!d | "G"!2!B>!4!dB |!2!B>{d}B !1!A/!2!G/ |
"D"!1!A>BA | !1!A2!3!f/g/ | !5!a>gf | "A"!2!e>{g}e d/e/ | "bm"!3!f>e!1!d | "G"!2!B>!4!dB | "D"!1!A3 | A3 :|
 


